Adwaita++/actions/16/transform-move-vertical.svg

<svg viewBox="0 0 16 16" xmlns="http://www.w3.org/2000/svg">
  <path d="m8 2-2 3h4zm0 5c-.5522847 0-1 .4477153-1 1s.4477153 1 1 1 1-.4477153 1-1-.4477153-1-1-1zm-2 4 2 3 2-3z" fill="#444"/>
</svg>

<svg xmlns="http://www.w3.org/2000/svg" viewBox="0 0 16 16">
 <defs>
  <style id="current-color-scheme" type="text/css">
   .ColorScheme-Text { color:#474747; }
  </style>
 </defs>
 <path fill="#444" class="ColorScheme-Text" d="M 8 2 L 6 5 L 10 5 L 8 2 z M 8 7 C 7.4477153 7 7 7.4477153 7 8 C 7 8.5522847 7.4477153 9 8 9 C 8.5522847 9 9 8.5522847 9 8 C 9 7.4477153 8.5522847 7 8 7 z M 6 11 L 8 14 L 10 11 L 6 11 z"/>
</svg>
